images/pic/icon/mail_popup.svg

<svg width="70" height="80" viewBox="0 0 70 80" fill="none" xmlns="http://www.w3.org/2000/svg">
<path d="M62.2242 40.5402V40.5404L43.75 58.0487L70 79.9999V33.1707L62.2242 40.5402Z" fill="#AE213E"/>
<path d="M0 33.1707V79.9999L26.25 58.0487L0 33.1707Z" fill="#F7375E"/>
<path d="M26.25 58.0488L0 80.0001H35V66.3415L26.25 58.0488Z" fill="#AE213E"/>
<path d="M35 66.3415V80.0001H70L43.75 58.0488L35 66.3415Z" fill="#87172E"/>
<path d="M7.77642 25.8008L0 33.1707H7.77583L7.77642 25.8008Z" fill="#F7375E"/>
<path d="M70.0001 33.1706L62.2233 25.8003L62.2238 33.1706H70.0001Z" fill="#F7375E"/>
<path d="M35 0L22.5969 11.7547L47.3717 11.7253L35 0Z" fill="#F7375E"/>
<path d="M62.2242 40.5402L70 33.1707H62.2238L62.2242 40.5402Z" fill="#87172E"/>
<path d="M35 66.3414L7.77505 40.5394L7.77583 33.1707H0L26.25 58.0487L35 66.3414Z" fill="#87172E"/>
<path d="M7.77502 40.5395L35 66.3414L43.75 58.0487L62.2241 40.5404L62.2237 33.1707L62.2232 25.8003L62.2222 11.7073L47.3717 11.7252L22.5969 11.7547L7.77775 11.7724L7.77638 25.8007L7.7758 33.1707L7.77502 40.5395ZM17.5 35.1219H52.5V40.9756H17.5V35.1219ZM17.5 29.2682V23.4146H52.5V29.2682H17.5Z" fill="#FFE8BC"/>
<path d="M52.5 23.4148H17.5V29.2685H52.5V23.4148Z" fill="white"/>
<path d="M52.5 35.1221H17.5V40.9757H52.5V35.1221Z" fill="white"/>
</svg>

<svg width="70" height="80" viewBox="0 0 70 80" fill="none" xmlns="http://www.w3.org/2000/svg"><path d="M62.224 40.54L43.75 58.05 70 79.999V33.172l-7.776 7.37z" fill="#AE213E"/><path d="M0 33.17V80l26.25-21.951L0 33.17z" fill="#F7375E"/><path d="M26.25 58.049L0 80h35V66.341l-8.75-8.292z" fill="#AE213E"/><path d="M35 66.341v13.66h35L43.75 58.048 35 66.34z" fill="#87172E"/><path d="M7.776 25.8L0 33.17h7.776V25.8zM70 33.17l-7.777-7.37v7.37H70zM35 0L22.597 11.755l24.775-.03L35 0z" fill="#F7375E"/><path d="M62.224 40.54L70 33.17h-7.776v7.37zM35 66.341L7.775 40.54v-7.368H0L26.25 58.05 35 66.34z" fill="#87172E"/><path d="M7.775 40.54L35 66.34l8.75-8.292L62.224 40.54V25.8l-.002-14.093-14.85.018-24.775.03-14.82.017v14.029l-.001 7.37-.001 7.368zm9.725-5.418h35v5.854h-35v-5.854zm0-5.854v-5.853h35v5.853h-35z" fill="#FFE8BC"/><path d="M52.5 23.415h-35v5.854h35v-5.854zm0 11.707h-35v5.854h35v-5.854z" fill="#fff"/></svg>
